assets/build/img/option-warning.svg

<svg width="24" height="24" viewBox="0 0 24 24" fill="none" xmlns="http://www.w3.org/2000/svg">
	<circle cx="12" cy="12" r="12" fill="#1D1D1D"/>
	<path d="M11.0249 5L11.1782 14.243H13.0076L13.1608 5H11.0249ZM12.0881 18.965C12.8065 18.965 13.3524 18.4286 13.3524 17.7294C13.3524 17.0302 12.8065 16.4938 12.0881 16.4938C11.3889 16.4938 10.8333 17.0302 10.8333 17.7294C10.8333 18.4286 11.3889 18.965 12.0881 18.965Z" fill="white"/>
	<path fill-rule="evenodd" clip-rule="evenodd" d="M10.4318 4.41666H13.7539L13.5813 14.8263H10.6044L10.4318 4.41666ZM13.0076 14.2429H11.1781L11.0249 4.99999H13.1608L13.0076 14.2429ZM13.9357 17.7294C13.9357 18.7625 13.1168 19.5483 12.0881 19.5483C11.0785 19.5483 10.25 18.7625 10.25 17.7294C10.25 16.6963 11.0785 15.9105 12.0881 15.9105C13.1168 15.9105 13.9357 16.6963 13.9357 17.7294ZM13.3524 17.7294C13.3524 18.4286 12.8064 18.965 12.0881 18.965C11.3889 18.965 10.8333 18.4286 10.8333 17.7294C10.8333 17.0302 11.3889 16.4938 12.0881 16.4938C12.8064 16.4938 13.3524 17.0302 13.3524 17.7294Z" fill="white"/>
</svg>

<svg width="24" height="24" fill="none" xmlns="http://www.w3.org/2000/svg"><circle cx="12" cy="12" r="12" fill="#1D1D1D"/><path d="M11.025 5l.153 9.243h1.83L13.16 5h-2.136zm1.063 13.965c.719 0 1.264-.536 1.264-1.236 0-.699-.546-1.235-1.264-1.235-.7 0-1.255.536-1.255 1.235 0 .7.556 1.236 1.255 1.236z" fill="#fff"/><path fill-rule="evenodd" clip-rule="evenodd" d="M10.432 4.417h3.322l-.173 10.41h-2.977l-.172-10.41zm2.576 9.826h-1.83L11.025 5h2.136l-.153 9.243zm.928 3.486c0 1.034-.82 1.82-1.848 1.82-1.01 0-1.838-.787-1.838-1.82s.829-1.818 1.838-1.818c1.029 0 1.848.785 1.848 1.818zm-.584 0c0 .7-.546 1.236-1.264 1.236-.7 0-1.255-.536-1.255-1.236 0-.699.556-1.235 1.255-1.235.718 0 1.264.536 1.264 1.235z" fill="#fff"/></svg>
